X: 3549
T: Big Man, The
R: mazurka
M: 3/4
K: Dmajor
A4 D2-|D2 d3c|B<dz2 G2-|G2 F2G2|A4 D2|F2 G2F2|FE-E4|E2 F2G2|
A4 D2-|D2 d3c|B<dz2 G2-|G2 A2G2|F2ED E<G|z2F<Az2|D6|1 D2F2G2:|2 D2C2D2||
E4 A,2-|A,2 G2FE|F<Az2 D2-|D2 d3c|B<dz2 G2-|G2 A2G2|F2ED E2-|E2 E3D|
C<A,-A,2 G2-|G2F2E2|F<Az2 D2-|D2 d3c|B/c/dz2G2|F2E<Az2|D6|EDC2D2|
E4 A,2-|A,2 G2FE|F<Az2 D2-|D2 d3c|B<dz2 G2-|G2 A2G2|F2ED E2|E2 F2G2|
A4 D2-|D2 d3c|B/c/dz2 G2-|G2 A2G2|F2ED E<G|z2F<Az2|D6|D2F2G2||

